X:1
T:Hound Dog
M:3/4
L:1/4
K:C
 G3| G3| G E D| C3-| C3-| C3| e d c| A3| c3-| c3| c c c| A- G2-| G3-|\
 G3| e d c| A3| c3-| c2 A| c c c| A- G2-| G3| G3| G3| G E D| C3-| C3-|\
 C3-| C2 E| G G G| G G G/2G/2| G E D| C3-| C2 e| e d c| A3| c2 A| c c c|\
 A- G2-| G3-| G2 e| e d c| A c2-| c3-| c2 A| c c c| A- G2-| G3| G3|\
 G3| G E D| C3-| C3-| C3|
